X:145
T:Paddy Clancy's
Z:Philippe Murphy 2007-03-15
R:jig
M:6/8
L:1/8
K:D
|: afd edc | dcB AFA | dcd ede | fdf efg |
afd edc | dcB AFA | dcd efg | fdc d3 ::
f3 g3 | faf fed | f3 g3 | afd ede |
f3 g3 | faf fed | f3 ede | fdc d3 :|
